public/smartphone.svg

<svg width="10" height="14" viewBox="0 0 10 14" fill="none" xmlns="http://www.w3.org/2000/svg">
<path d="M8.5 0H1.5C0.672848 0 0 0.588742 0 1.3125V12.6875C0 13.4113 0.672848 14 1.5 14H8.5C9.32715 14 10 13.4113 10 12.6875V1.3125C10 0.588742 9.32715 0 8.5 0ZM1.5 0.875H8.5C8.77588 0.875 9 1.07111 9 1.3125V10.5H1V1.3125C1 1.07111 1.22412 0.875 1.5 0.875ZM8.5 13.125H1.5C1.22412 13.125 1 12.9289 1 12.6875V11.375H9V12.6875C9 12.9289 8.77588 13.125 8.5 13.125Z" fill="#757575"/>
<path d="M2.35355 11.9407C2.54882 12.1116 2.54882 12.3887 2.35355 12.5596C2.15828 12.7305 1.84172 12.7305 1.64645 12.5596C1.45118 12.3887 1.45118 12.1116 1.64645 11.9407C1.84172 11.7698 2.15828 11.7698 2.35355 11.9407Z" fill="#757575"/>
</svg>

<svg xmlns="http://www.w3.org/2000/svg" width="10" height="14" fill="none"><path fill="#757575" d="M8.5 0h-7C.673 0 0 .589 0 1.313v11.374C0 13.412.673 14 1.5 14h7c.827 0 1.5-.589 1.5-1.313V1.313C10 .589 9.327 0 8.5 0Zm-7 .875h7c.276 0 .5.196.5.438V10.5H1V1.312c0-.24.224-.437.5-.437Zm7 12.25h-7c-.276 0-.5-.196-.5-.438v-1.312h8v1.313c0 .24-.224.437-.5.437Z"/><path fill="#757575" d="M2.354 11.94a.4.4 0 0 1 0 .62.552.552 0 0 1-.708 0 .4.4 0 0 1 0-.62.552.552 0 0 1 .708 0Z"/></svg>
